static/images/website-selectedPrebuild.svg

<svg height="86" viewBox="0 0 86 86" width="86" xmlns="http://www.w3.org/2000/svg"><g fill="none" fill-rule="evenodd"><circle cx="43" cy="43" fill="#02afde" r="43"/><path d="m33.2093793 31.5937241c2.9771035-3.3551379 4.7906207-7.7657586 4.7906207-12.5937241 0-5.0232069-1.9628966-9.59368966-5.1575172-12.99468966v-.00065517c-.0026207-.00393103-.0065518-.00524138-.0085173-.00851724-3.3276207-3.53727586-7.9898276-5.80155172-13.1755172-5.97910345l-.0006552-.00065517-.3701724-.00982759c-.0956552-.00327586-.1913104-.00655172-.2876207-.00655172s-.1919655.00327586-.2876207.00655172l-.3688621.00982759-.0006551.00065517c-5.1856897.17755173-9.84789658 2.44182759-13.17551727 5.97910345-.00262069.00327586-.00655173.00458621-.00851724.00851724 0 0 0 .00065517-.00065518.00131035-3.19527586 3.40034482-5.15817241 7.97082758-5.15817241 12.99403448 0 4.8279655 1.81351724 9.2385862 4.79062069 12.5937241.00393103.0058966.00393103.0124483.00851724.0183449.0117931.0163793.02882759.0242413.04127586.0393103 3.34531035 3.7397241 8.14510341 6.1487931 13.50179311 6.3322414l.0006552.0006552.368862.0098275c.0963104.0026207.1919656.0058966.2882759.0058966s.1919655-.0032759.2876207-.0065517l.3688621-.0098276.0006551-.0006552c5.3625862-.1841034 10.1676207-2.5977586 13.5129311-6.3453448.0085172-.0111379.0222758-.0144138.0301379-.0262069.0052414-.0052414.0052414-.0117931.0091724-.0176897zm-31.88265516-11.9385517h7.86403448c.07403448 2.7772759.61651724 5.475931 1.58224138 8.0042414-1.86331034.6741724-3.64472414 1.5783103-5.31410345 2.7065172-2.45493103-2.9201034-3.9827931-6.6421379-4.13217241-10.7107586zm4.48989655-12.43320688c1.63006897 1.06006896 3.36562069 1.90917241 5.17586211 2.54337931-1.10855177 2.69079307-1.72179314 5.59189657-1.80172418 8.57948277h-7.86403448c.1565862-4.2632069 1.82596552-8.1451035 4.48989655-11.12286208zm30.85665521 11.12286208h-7.8640345c-.0799311-2.9875862-.6931724-5.8886897-1.8017242-8.57948277 1.8102414-.6342069 3.5457931-1.48331035 5.1758621-2.54337931 2.663931 2.97775858 4.3333104 6.85965518 4.4898966 11.12286208zm-18.3284483-8.54148277c-1.8941035-.05372414-3.7534828-.33610345-5.5499655-.84058621 1.3280345-2.7242069 3.2031379-5.18306896 5.5499655-7.23048276zm0 1.31034487v7.2311379h-7.8437242c.0805863-2.8486897.6781035-5.6115517 1.7466897-8.1732759 1.9694483.5706552 4.0142414.8864483 6.0970345.942138zm1.3103448 0c2.0827931-.0556897 4.1275862-.3708276 6.0976897-.942138 1.0685862 2.5617242 1.6661034 5.3245862 1.7466896 8.1732759h-7.8443793zm0-1.31034487v-8.07106897c2.3468276 2.0474138 4.221931 4.50627586 5.5499655 7.23048276-1.7964827.50448276-3.655862.78686207-5.5499655.84058621zm6.8196897-1.23893104c-1.2585862-2.63706896-3.0052759-5.0395862-5.168-7.0987931 3.8366896.50186207 7.2887931 2.23675862 9.9474827 4.79455172-1.5095172.95786207-3.1107586 1.72834483-4.7794827 2.30424138zm-14.9497242 0c-1.66872411-.57589655-3.26996549-1.34637931-4.77882756-2.30424138 2.65803449-2.5577931 6.11079306-4.29268965 9.94748276-4.79455172-2.1633793 2.0592069-3.910069 4.46172414-5.1686552 7.0987931zm-1.0240345 11.09075861h7.8437242v6.5766207c-2.1666552.0576552-4.2894138.3957241-6.3296207 1.0096207-.9218276-2.3946552-1.440069-4.9531035-1.5141035-7.5862414zm7.8437242 7.8869655v8.7255862c-2.511931-2.1915517-4.4813793-4.8541724-5.8205517-7.8076896 1.8783793-.5536207 3.8294827-.8615517 5.8205517-.9178966zm1.3103448 8.7255862v-8.7255862c1.991069.0556897 3.9421724.3642759 5.8205517.9172414-1.3391724 2.9541724-3.3086207 5.6167931-5.8205517 7.8083448zm0-10.035931v-6.5766207h7.8437242c-.0740345 2.6331379-.5922759 5.1915862-1.5147587 7.5868966-2.0395517-.6145518-4.1623103-.9526207-6.3289655-1.0102759zm9.154069-6.5766207h7.8640345c-.1493793 4.0686207-1.6765862 7.7906552-4.1321725 10.7107586-1.6693793-1.1282069-3.4507931-2.0323448-5.3141034-2.7065172.9663793-2.5283104 1.5082069-5.2269655 1.5822414-8.0042414zm-22.45996554 11.6922069c1.55013793-1.029931 3.20051724-1.858069 4.92493104-2.4772069 1.2743103 2.8565517 3.1035517 5.4595517 5.418931 7.6642069-4.0299655-.5274138-7.63668962-2.4143103-10.34386204-5.187zm14.95758624 5.187c2.3153793-2.204 4.1446207-4.807 5.418931-7.6642069 1.7244138.6191379 3.3741379 1.4472759 4.924931 2.4772069-2.7071724 2.7726897-6.3138965 4.6595862-10.343862 5.187z" fill="#fff" fill-rule="nonzero" stroke="#fff" stroke-width=".5" transform="translate(24 24)"/></g></svg>

<?xml version="1.0" encoding="UTF-8"?>
<svg width="86px" height="86px" viewBox="0 0 86 86" version="1.1" xmlns="http://www.w3.org/2000/svg" xmlns:xlink="http://www.w3.org/1999/xlink">
    <!-- Generator: sketchtool 46.2 (44496) - http://www.bohemiancoding.com/sketch -->
    <title>0F1CA479-E80E-4AF5-A001-0E846FDE6CFB</title>
    <desc>Created with sketchtool.</desc>
    <defs></defs>
    <g id="Page-1" stroke="none" stroke-width="1" fill="none" fill-rule="evenodd">
        <g id="icons" transform="translate(-407.000000, -216.000000)">
            <g id="Group" transform="translate(203.000000, 216.000000)">
                <g id="2" transform="translate(204.000000, 0.000000)">
                    <g id="ic/website-selected">
                        <g>
                            <circle id="Oval-" fill="#02AFDE" cx="43" cy="43" r="43"></circle>
                            <g id="internet" transform="translate(24.000000, 24.000000)" stroke="#FFFFFF" stroke-width="0.5" fill="#FFFFFF" fill-rule="nonzero">
                                <path d="M33.2093793,31.5937241 C36.1864828,28.2385862 38,23.8279655 38,19 C38,13.9767931 36.0371034,9.40631034 32.8424828,6.00531034 C32.8424828,6.00531034 32.8424828,6.00465517 32.8424828,6.00465517 C32.8398621,6.00072414 32.835931,5.99941379 32.8339655,5.99613793 C29.5063448,2.45886207 24.8441379,0.194586207 19.6584483,0.0170344828 L19.6577931,0.0163793103 L19.2876207,0.00655172414 C19.1919655,0.00327586207 19.0963103,0 19,0 C18.9036897,0 18.8080345,0.00327586207 18.7123793,0.00655172414 L18.3435172,0.0163793103 L18.3428621,0.0170344828 C13.1571724,0.194586207 8.49496552,2.45886207 5.16734483,5.99613793 C5.16472414,5.99941379 5.1607931,6.00072414 5.15882759,6.00465517 C5.15882759,6.00465517 5.15882759,6.00531034 5.15817241,6.00596552 C1.96289655,9.40631034 0,13.9767931 0,19 C0,23.8279655 1.81351724,28.2385862 4.79062069,31.5937241 C4.79455172,31.5996207 4.79455172,31.6061724 4.79913793,31.612069 C4.81093103,31.6284483 4.82796552,31.6363103 4.84041379,31.6513793 C8.18572414,35.3911034 12.9855172,37.8001724 18.3422069,37.9836207 L18.3428621,37.9842759 L18.7117241,37.9941034 C18.8080345,37.9967241 18.9036897,38 19,38 C19.0963103,38 19.1919655,37.9967241 19.2876207,37.9934483 L19.6564828,37.9836207 L19.6571379,37.9829655 C25.0197241,37.7988621 29.8247586,35.3852069 33.170069,31.6376207 C33.1785862,31.6264828 33.1923448,31.6232069 33.2002069,31.6114138 C33.2054483,31.6061724 33.2054483,31.5996207 33.2093793,31.5937241 Z M1.32672414,19.6551724 L9.19075862,19.6551724 C9.2647931,22.4324483 9.80727586,25.1311034 10.773,27.6594138 C8.90968966,28.3335862 7.12827586,29.2377241 5.45889655,30.365931 C3.00396552,27.4458276 1.47610345,23.7237931 1.32672414,19.6551724 Z M5.81662069,7.22196552 C7.44668966,8.28203448 9.18224138,9.13113793 10.9924828,9.76534483 C9.88393103,12.4561379 9.27068966,15.3572414 9.19075862,18.3448276 L1.32672414,18.3448276 C1.48331034,14.0816207 3.15268966,10.1997241 5.81662069,7.22196552 Z M36.6732759,18.3448276 L28.8092414,18.3448276 C28.7293103,15.3572414 28.116069,12.4561379 27.0075172,9.76534483 C28.8177586,9.13113793 30.5533103,8.28203448 32.1833793,7.22196552 C34.8473103,10.1997241 36.5166897,14.0816207 36.6732759,18.3448276 Z M18.3448276,9.80334483 C16.4507241,9.74962069 14.5913448,9.46724138 12.7948621,8.96275862 C14.1228966,6.23855172 15.998,3.77968966 18.3448276,1.73227586 L18.3448276,9.80334483 Z M18.3448276,11.1136897 L18.3448276,18.3448276 L10.5011034,18.3448276 C10.5816897,15.4961379 11.1792069,12.7332759 12.2477931,10.1715517 C14.2172414,10.7422069 16.2620345,11.058 18.3448276,11.1136897 Z M19.6551724,11.1136897 C21.7379655,11.058 23.7827586,10.7428621 25.7528621,10.1715517 C26.8214483,12.7332759 27.4189655,15.4961379 27.4995517,18.3448276 L19.6551724,18.3448276 L19.6551724,11.1136897 Z M19.6551724,9.80334483 L19.6551724,1.73227586 C22.002,3.77968966 23.8771034,6.23855172 25.2051379,8.96275862 C23.4086552,9.46724138 21.5492759,9.74962069 19.6551724,9.80334483 Z M26.4748621,8.56441379 C25.2162759,5.92734483 23.4695862,3.52482759 21.3068621,1.46562069 C25.1435517,1.96748276 28.5956552,3.70237931 31.2543448,6.26017241 C29.7448276,7.21803448 28.1435862,7.98851724 26.4748621,8.56441379 Z M11.5251379,8.56441379 C9.85641379,7.98851724 8.25517241,7.21803448 6.74631034,6.26017241 C9.40434483,3.70237931 12.8571034,1.96748276 16.6937931,1.46562069 C14.5304138,3.52482759 12.7837241,5.92734483 11.5251379,8.56441379 Z M10.5011034,19.6551724 L18.3448276,19.6551724 L18.3448276,26.2317931 C16.1781724,26.2894483 14.0554138,26.6275172 12.0152069,27.2414138 C11.0933793,24.8467586 10.5751379,22.2883103 10.5011034,19.6551724 Z M18.3448276,27.5421379 L18.3448276,36.2677241 C15.8328966,34.0761724 13.8634483,31.4135517 12.5242759,28.4600345 C14.4026552,27.9064138 16.3537586,27.5984828 18.3448276,27.5421379 Z M19.6551724,36.2677241 L19.6551724,27.5421379 C21.6462414,27.5978276 23.5973448,27.9064138 25.4757241,28.4593793 C24.1365517,31.4135517 22.1671034,34.0761724 19.6551724,36.2677241 Z M19.6551724,26.2317931 L19.6551724,19.6551724 L27.4988966,19.6551724 C27.4248621,22.2883103 26.9066207,24.8467586 25.9841379,27.242069 C23.9445862,26.6275172 21.8218276,26.2894483 19.6551724,26.2317931 Z M28.8092414,19.6551724 L36.6732759,19.6551724 C36.5238966,23.7237931 34.9966897,27.4458276 32.5411034,30.365931 C30.8717241,29.2377241 29.0903103,28.3335862 27.227,27.6594138 C28.1933793,25.1311034 28.7352069,22.4324483 28.8092414,19.6551724 Z M6.34927586,31.3473793 C7.89941379,30.3174483 9.5497931,29.4893103 11.2742069,28.8701724 C12.5485172,31.7267241 14.3777586,34.3297241 16.6931379,36.5343793 C12.6631724,36.0069655 9.05644828,34.120069 6.34927586,31.3473793 Z M21.3068621,36.5343793 C23.6222414,34.3303793 25.4514828,31.7273793 26.7257931,28.8701724 C28.4502069,29.4893103 30.099931,30.3174483 31.6507241,31.3473793 C28.9435517,34.120069 25.3368276,36.0069655 21.3068621,36.5343793 Z" id="Shape"></path>
                            </g>
                        </g>
                    </g>
                </g>
            </g>
        </g>
    </g>
</svg>
